X: 433
T: Hunting the hare
C:anon.
O:Ireland
B:Francis O'Neill: "The Dance Music of Ireland" (1907) no. 433
R:Hop, slip jig
Z:Transcribed by Frank Nordberg - http://www.musicaviva.com
F:http://www.musicaviva.com/abc/tunes/ireland/oneill-1001/oneill-1001-043
3.abc
M:9/8
L:1/8
K:D
G|F2A ABAd2A|Bcd e2d cBA|F2A ABA d2A|Bcd edc d2:|
|:g|f2d def g2e|a2f efd cBA|fef def g2e|a2f edc d2:|
W:
W:
W:  From Musica Viva - http://www.musicaviva.com
W:  the Internet center for free sheet music downloads.


